code/src/estates/deleteFilter.svg

<?xml version="1.0" encoding="UTF-8" standalone="no"?>
<svg
   fill="#ffffff"
   viewBox="0 0 12 12"
   width="24"
   height="24"
   version="1.1"
   id="svg19"
   sodipodi:docname="deleteFilter.svg"
   inkscape:version="1.1 (c68e22c387, 2021-05-23)"
   xmlns:inkscape="http://www.inkscape.org/namespaces/inkscape"
   xmlns:sodipodi="http://sodipodi.sourceforge.net/DTD/sodipodi-0.dtd"
   xmlns="http://www.w3.org/2000/svg"
   xmlns:svg="http://www.w3.org/2000/svg">
  <defs
     id="defs23" />
  <sodipodi:namedview
     id="namedview21"
     pagecolor="#ffffff"
     bordercolor="#666666"
     borderopacity="1.0"
     inkscape:pageshadow="2"
     inkscape:pageopacity="0.0"
     inkscape:pagecheckerboard="0"
     showgrid="false"
     showguides="false"
     inkscape:snap-grids="false"
     inkscape:snap-object-midpoints="true"
     inkscape:snap-others="true"
     inkscape:snap-to-guides="false"
     inkscape:snap-midpoints="true"
     inkscape:zoom="12.507596"
     inkscape:cx="4.1174977"
     inkscape:cy="13.951522"
     inkscape:window-width="1920"
     inkscape:window-height="1057"
     inkscape:window-x="1016"
     inkscape:window-y="-8"
     inkscape:window-maximized="1"
     inkscape:current-layer="svg19" />
  <path
     id="path17"
     style="fill:#ffffff;stroke-width:0.6"
     d="M 6.0000001,0 C 2.6933981,0 0,2.6933982 0,5.9999998 0,9.3066015 2.6933981,12 6.0000001,12 9.3066015,12 12,9.3066015 12,5.9999998 12,2.6933982 9.3066015,0 6.0000001,0 Z m 0,1.2 C 8.6580735,1.2 10.8,3.3419264 10.8,5.9999998 10.8,8.6580735 8.6580735,10.8 6.0000001,10.8 3.3419264,10.8 1.2,8.6580735 1.2,5.9999998 1.2,3.3419264 3.3419264,1.2 6.0000001,1.2 Z M 3.6,2.9988282 A 0.60094481,0.60094481 0 0 0 2.9988282,3.6 0.60094481,0.60094481 0 0 0 3.1804686,4.0195314 l -0.00469,0.00469 1.9757798,1.9757825 -1.975781,1.9757813 0.00469,0.00465 A 0.60094481,0.60094481 0 0 0 2.9988282,8.3999685 0.60094481,0.60094481 0 0 0 3.6,9.00114 0.60094481,0.60094481 0 0 0 4.0429686,8.8054365 l 1.9570315,-1.95703 1.9757812,1.9757808 0.00465,-0.00465 A 0.60094481,0.60094481 0 0 0 8.3999633,9.001176 0.60094481,0.60094481 0 0 0 9.0011355,8.4000045 0.60094481,0.60094481 0 0 0 8.805432,7.9570357 L 6.8484313,5.9999998 8.805462,4.0429686 A 0.60094481,0.60094481 0 0 0 9.0011655,3.6 0.60094481,0.60094481 0 0 0 8.3999933,2.9988282 0.60094481,0.60094481 0 0 0 7.9804628,3.1804686 L 7.9758128,3.1757811 6.0000013,5.1515636 4.0429697,3.1945325 A 0.60094481,0.60094481 0 0 0 3.6000012,2.9988294 Z" />
</svg>

<?xml version="1.0" encoding="UTF-8"?>
<svg width="24" height="24" fill="#ffffff" version="1.1" viewBox="0 0 12 12" xmlns="http://www.w3.org/2000/svg">
 <path d="m6 0c-3.31 0-6 2.69-6 6 0 3.31 2.69 6 6 6 3.31 0 6-2.69 6-6 0-3.31-2.69-6-6-6zm0 1.2c2.66 0 4.8 2.14 4.8 4.8 0 2.66-2.14 4.8-4.8 4.8-2.66 0-4.8-2.14-4.8-4.8 0-2.66 2.14-4.8 4.8-4.8zm-2.4 1.8a0.601 0.601 0 0 0-0.601 0.601 0.601 0.601 0 0 0 0.182 0.42l-0.00469 0.00469 1.98 1.98-1.98 1.98 0.00469 0.00465a0.601 0.601 0 0 0-0.182 0.42 0.601 0.601 0 0 0 0.601 0.601 0.601 0.601 0 0 0 0.443-0.196l1.96-1.96 1.98 1.98 0.00465-0.00465a0.601 0.601 0 0 0 0.42 0.182 0.601 0.601 0 0 0 0.601-0.601 0.601 0.601 0 0 0-0.196-0.443l-1.96-1.96 1.96-1.96a0.601 0.601 0 0 0 0.196-0.443 0.601 0.601 0 0 0-0.601-0.601 0.601 0.601 0 0 0-0.42 0.182l-0.00465-0.00469-1.98 1.98-1.96-1.96a0.601 0.601 0 0 0-0.443-0.196z" fill="#fff" stroke-width=".6"/>
</svg>
